assets/icons/solid/paste.svg

<svg xmlns="http://www.w3.org/2000/svg" viewBox="0 0 512 512"><!--! Font Awesome Free 6.6.0 by @fontawesome - https://fontawesome.com License - https://fontawesome.com/license/free (Icons: CC BY 4.0, Fonts: SIL OFL 1.1, Code: MIT License) Copyright 2024 Fonticons, Inc. --><path d="M160 0c-23.7 0-44.4 12.9-55.4 32L48 32C21.5 32 0 53.5 0 80L0 400c0 26.5 21.5 48 48 48l144 0 0-272c0-44.2 35.8-80 80-80l48 0 0-16c0-26.5-21.5-48-48-48l-56.6 0C204.4 12.9 183.7 0 160 0zM272 128c-26.5 0-48 21.5-48 48l0 272 0 16c0 26.5 21.5 48 48 48l192 0c26.5 0 48-21.5 48-48l0-220.1c0-12.7-5.1-24.9-14.1-33.9l-67.9-67.9c-9-9-21.2-14.1-33.9-14.1L320 128l-48 0zM160 40a24 24 0 1 1 0 48 24 24 0 1 1 0-48z"/></svg>

<svg xmlns="http://www.w3.org/2000/svg" viewBox="0 0 512 512"><!--! Font Awesome Pro 6.5.1 by @fontawesome - https://fontawesome.com License - https://fontawesome.com/license (Commercial License) Copyright 2023 Fonticons, Inc. --><path d="M160 0c-23.7 0-44.4 12.9-55.4 32H48C21.5 32 0 53.5 0 80V400c0 26.5 21.5 48 48 48H192V176c0-44.2 35.8-80 80-80h48V80c0-26.5-21.5-48-48-48H215.4C204.4 12.9 183.7 0 160 0zM272 128c-26.5 0-48 21.5-48 48V448v16c0 26.5 21.5 48 48 48H464c26.5 0 48-21.5 48-48V243.9c0-12.7-5.1-24.9-14.1-33.9l-67.9-67.9c-9-9-21.2-14.1-33.9-14.1H320 272zM160 40a24 24 0 1 1 0 48 24 24 0 1 1 0-48z"/></svg>
